X:008
T:Bonnie Traveller Strathspey* +
B:NFID.192c ("untitled strathspey")
008bonn_t
S:DOD
L:1/8
M:C
R:hornpipe
Q:280
K:F#m
C|FGAB c<FAc|B^dec B/A/G/F/ EG|FGAB c<FAc|Be c/B/A/G/ A<F|
g|agfc fgaf|egBe GBeg|abga fgaf|ec c/B/A/G/ A<FFg|
agfc fgaf|bge<B e/f/g/a/ bg|accB ceBG|ec c/B/A/G/ A<FF||
= = =
P:simplified version in Em
K:Em
B,|EFGA BEGB|A^cdB AEDF|EFGA BEGB|AdBF GEE:|
f|gfeB efge|dfAd FAdf|gafg efge|dBBF GEEf|
gfeB efge|afdA dgaf|gBBA BdAF|dBBF GEE||

%%%

